X: 7855
T: Commonality
R: reel
M: 4/4
K: Gminor
d2 cd BGGF|GABc d3B|cBAG F2 (3GAB|cBAG FGAB|
cffc AFcA|GABc d3 f|gGGG FGBc|d2 cd BGGF:|
gfdc =Bcd=e|fdg=e fBdf|gfdc =Bcd=e|fdce dG G2|
gfdc =Bcd=e|fdg=e fBdf|cd=ef g3 e|fdce dG G2:|

